X:4425
L:1/8
Q:1/2=100
M:3/2
K:Amin
 A2 E2 E2 A2 c4 | (dc) (Bc) A2 c2 e3 f | e2 (ae) f2 e2 d2 c2 | B4 A2 e2 f2 e2 |1 d4 c4"^*" :|2 
 d4 c4 ||"^*" |: z2 d2 | (ed) (cB) (cd) c2 (dc) (BA) | (Bc) B2 (cA) (A^G) (AB) A2 | 
 z2 e2 (fe)(dc) g2 G2 | c4 c4"^:S:" efef | g2 g2 gfed c4 | cdcd e2 e2 edcB | 
 A2 e2 A2 e2 (dc) (BA) |1 A8"^*" :|2 A12 |]

